resources/images/filter-icon.svg

<svg width="18" height="14" xmlns="http://www.w3.org/2000/svg"><g transform="translate(-3 -5)" fill="none" fill-rule="evenodd"><path d="M0 0h24v24H0z"/><path d="M3 7c0 .55.45 1 1 1h16c.55 0 1-.45 1-1s-.45-1-1-1H4c-.55 0-1 .45-1 1zm0 5c0 .55.45 1 1 1h16c.55 0 1-.45 1-1s-.45-1-1-1H4c-.55 0-1 .45-1 1zm0 5c0 .55.45 1 1 1h16c.55 0 1-.45 1-1s-.45-1-1-1H4c-.55 0-1 .45-1 1z" fill="#0E69FF" fill-rule="nonzero"/><circle fill="#0E69FF" cx="8" cy="7" r="2"/><circle fill="#0E69FF" cx="16" cy="12" r="2"/><circle fill="#0E69FF" cx="8" cy="17" r="2"/></g></svg>

<?xml version="1.0" encoding="UTF-8"?>
<svg width="18px" height="14px" viewBox="0 0 18 14" version="1.1" xmlns="http://www.w3.org/2000/svg" xmlns:xlink="http://www.w3.org/1999/xlink">
    <!-- Generator: sketchtool 55.2 (78181) - https://sketchapp.com -->
    <title>Icons / actions / filter search query</title>
    <desc>Created with sketchtool.</desc>
    <g id="desktop" stroke="none" stroke-width="1" fill="none" fill-rule="evenodd">
        <g id="search-results-with-collections" transform="translate(-803.000000, -143.000000)">
            <g id="buttons-/-Filter" transform="translate(800.000000, 138.000000)">
                <g id="icons-/-filter">
                    <g id="round-filter_list-24px">
                        <polygon id="Path" points="0 0 24 0 24 24 0 24"></polygon>
                        <path d="M3,7 C3,7.55 3.45,8 4,8 L20,8 C20.55,8 21,7.55 21,7 C21,6.45 20.55,6 20,6 L4,6 C3.45,6 3,6.45 3,7 Z M3,12 C3,12.55 3.45,13 4,13 L20,13 C20.55,13 21,12.55 21,12 C21,11.45 20.55,11 20,11 L4,11 C3.45,11 3,11.45 3,12 Z M3,17 C3,17.55 3.45,18 4,18 L20,18 C20.55,18 21,17.55 21,17 C21,16.45 20.55,16 20,16 L4,16 C3.45,16 3,16.45 3,17 Z" id="Shape" fill="#0E69FF" fill-rule="nonzero"></path>
                    </g>
                    <circle id="Oval" fill="#0E69FF" cx="8" cy="7" r="2"></circle>
                    <circle id="Oval" fill="#0E69FF" cx="16" cy="12" r="2"></circle>
                    <circle id="Oval" fill="#0E69FF" cx="8" cy="17" r="2"></circle>
                </g>
            </g>
        </g>
    </g>
</svg>
